X: 10632
M: 6/8
L: 1/8
K: Bb
uF !segno!|\
cdc cff | =eBd (.c2.c) | cdc cAF | AGG GAB |\
cdc cff | =eBd (.c2.c) | d=ef gfe | fgf ecA !segno!"_D.C."|]


